src/apps/scalable/darktable.svg

<?xml version="1.0" encoding="UTF-8"?>
<svg width="64" height="64" enable-background="new 0 0 1024 1024" image-rendering="optimizeSpeed" xml:space="preserve" xmlns="http://www.w3.org/2000/svg" xmlns:xlink="http://www.w3.org/1999/xlink"><defs><linearGradient id="l" x1="372.86" x2="318.3" y1="593.39" y2="726.39" gradientTransform="translate(1.875 -533.77)" gradientUnits="userSpaceOnUse"><stop stop-color="#ff7004" offset="0"/><stop stop-color="#ba4704" offset="1"/></linearGradient><linearGradient id="m" x1="277.63" x2="454.05" y1="637.06" y2="683.49" gradientTransform="rotate(60 717.32 524.51)" gradientUnits="userSpaceOnUse"><stop stop-color="#f7f10e" offset="0"/><stop stop-color="#c58907" offset="1"/></linearGradient><linearGradient id="n" x1="253.84" x2="401.19" y1="725.27" y2="612.48" gradientTransform="rotate(120 409.15 523.42)" gradientUnits="userSpaceOnUse"><stop stop-color="#17b414" offset="0"/><stop stop-color="#176314" offset="1"/></linearGradient><linearGradient id="o" x1="326.12" x2="342.12" y1="701.77" y2="581.77" gradientTransform="rotate(180 255.06 522.88)" gradientUnits="userSpaceOnUse"><stop stop-color="#1476e6" offset="0"/><stop stop-color="#143e9a" offset="1"/></linearGradient><linearGradient id="p" x1="456.98" x2="273.63" y1="694.42" y2="643.99" gradientTransform="rotate(240 100.98 522.34)" gradientUnits="userSpaceOnUse"><stop stop-color="#d000d0" offset="0"/><stop stop-color="#760076" offset="1"/></linearGradient><linearGradient id="q" x1="432.12" x2="263.69" y1="650.05" y2="710.34" gradientTransform="rotate(-60 -207.19 521.26)" gradientUnits="userSpaceOnUse"><stop stop-color="#d70016" offset="0"/><stop stop-color="#8d0016" offset="1"/></linearGradient><linearGradient id="r" x1="256" x2="256" y1="224" y2="288" gradientUnits="userSpaceOnUse"><stop stop-color="#fff" offset="0"/><stop stop-color="#b0b0b0" offset="1"/></linearGradient><linearGradient id="j" x1="7.937" x2="7.937" y1="15.081" y2="1.852" gradientTransform="translate(55.333 56.611) scale(23.573)" gradientUnits="userSpaceOnUse"><stop stop-color="gray" offset="0"/><stop stop-color="#a5a5a5" offset="1"/></linearGradient><filter id="w" x="-.078" y="-.067" width="1.156" height="1.134"><feGaussianBlur stdDeviation="4.831"/></filter><filter id="s" x="-.062" y="-.087" width="1.123" height="1.173"><feGaussianBlur stdDeviation="4.819"/></filter><filter id="t" x="-.078" y="-.067" width="1.155" height="1.134"><feGaussianBlur stdDeviation="4.825"/></filter><filter id="x" x="-.076" y="-.068" width="1.153" height="1.136"><feGaussianBlur stdDeviation="5.057"/></filter><filter id="u" x="-.076" y="-.068" width="1.153" height="1.136"><feGaussianBlur stdDeviation="5.057"/></filter><filter id="v" x="-.062" y="-.087" width="1.123" height="1.173"><feGaussianBlur stdDeviation="4.822"/></filter><filter id="y" x="-.096" y="-.096" width="1.192" height="1.192"><feGaussianBlur stdDeviation="1.758"/></filter><clipPath id="k"><rect x="80.282" y="81.36" width="349.28" height="349.28" rx="81.095" ry="81.095" fill="url(#j)" stroke-width="6.2371"/></clipPath></defs><g image-rendering="auto"><path transform="scale(3.7796)" d="M4.37.53C2.254.53.53 2.312.53 4.496v8.468c0 2.184 1.725 3.968 3.84 3.968h8.194c2.114 0 3.84-1.783 3.84-3.968V4.497c0-2.184-1.726-3.968-3.84-3.968zm.256.52h7.681c1.844 0 3.33 1.534 3.33 3.44v7.937c0 1.906-1.485 3.44-3.33 3.44h-7.68c-1.845 0-3.33-1.534-3.33-3.44V4.49c0-1.906 1.485-3.44 3.33-3.44z" enable-background="accumulate" opacity=".01" style="font-feature-settings:normal;font-variant-alternates:normal;font-variant-caps:normal;font-variant-east-asian:normal;font-variant-ligatures:normal;font-variant-numeric:normal;font-variant-position:normal;font-variation-settings:normal;inline-size:0;isolation:auto;mix-blend-mode:normal;shape-margin:0;shape-padding:0;text-decoration-color:#000;text-decoration-line:none;text-decoration-style:solid;text-indent:0;text-orientation:mixed;text-transform:none;white-space:normal"/><path transform="scale(3.7796)" d="M4.359.794C2.392.794.795 2.447.795 4.48v8.5c0 2.035 1.597 3.688 3.564 3.688h8.216c1.967 0 3.564-1.653 3.564-3.688v-8.5c0-2.034-1.597-3.687-3.564-3.687zm.272.256h7.672c1.842 0 3.325 1.534 3.325 3.44v7.937c0 1.906-1.483 3.44-3.325 3.44H4.63c-1.842 0-3.325-1.534-3.325-3.44V4.49c0-1.906 1.483-3.44 3.325-3.44z" enable-background="accumulate" opacity=".01" style="font-feature-settings:normal;font-variant-alternates:normal;font-variant-caps:normal;font-variant-east-asian:normal;font-variant-ligatures:normal;font-variant-numeric:normal;font-variant-position:normal;font-variation-settings:normal;inline-size:0;isolation:auto;mix-blend-mode:normal;shape-margin:0;shape-padding:0;text-decoration-color:#000;text-decoration-line:none;text-decoration-style:solid;text-indent:0;text-orientation:mixed;text-transform:none;white-space:normal"/><path transform="scale(3.7796)" d="M4.31 1.058c-1.866 0-3.375 1.539-3.375 3.44v8.467c0 1.9 1.57 3.439 3.435 3.439h8.2c1.866 0 3.427-1.538 3.427-3.44V4.498c0-1.9-1.51-3.439-3.375-3.439h-.097c1.794.087 3.214 1.582 3.214 3.432v7.937c0 1.906-1.506 3.44-3.377 3.44h-7.79c-1.871 0-3.377-1.534-3.377-3.44V4.49c0-1.85 1.42-3.345 3.214-3.432z" enable-background="accumulate" opacity=".03" style="font-feature-settings:normal;font-variant-alternates:normal;font-variant-caps:normal;font-variant-east-asian:normal;font-variant-ligatures:normal;font-variant-numeric:normal;font-variant-position:normal;font-variation-settings:normal;inline-size:0;isolation:auto;mix-blend-mode:normal;shape-margin:0;shape-padding:0;text-decoration-color:#000;text-decoration-line:none;text-decoration-style:solid;text-indent:0;text-orientation:mixed;text-transform:none;white-space:normal"/><path d="M4 46.969V49c0 6.648 5.896 12 12.544 12h30.961C54.153 61 60 55.648 60 49v-1.992a12.972 12.972 0 0 1-13 12.963H17.002A12.973 12.973 0 0 1 4 46.969Z" enable-background="accumulate" opacity=".03" style="font-feature-settings:normal;font-variant-alternates:normal;font-variant-caps:normal;font-variant-east-asian:normal;font-variant-ligatures:normal;font-variant-numeric:normal;font-variant-position:normal;font-variation-settings:normal;inline-size:0;isolation:auto;mix-blend-mode:normal;shape-margin:0;shape-padding:0;text-decoration-color:#000;text-decoration-line:none;text-decoration-style:solid;text-indent:0;text-orientation:mixed;text-transform:none;white-space:normal"/><path transform="scale(3.7796)" d="M1.058 11.906v.592c0 1.939 1.573 3.5 3.332 3.5h8.16c1.76 0 3.325-1.561 3.325-3.5v-.58c-.006 2.095-1.537 3.78-3.44 3.78H4.498c-1.905 0-3.44-1.692-3.44-3.792z" enable-background="accumulate" opacity=".05" style="font-feature-settings:normal;font-variant-alternates:normal;font-variant-caps:normal;font-variant-east-asian:normal;font-variant-ligatures:normal;font-variant-numeric:normal;font-variant-position:normal;font-variation-settings:normal;inline-size:0;isolation:auto;mix-blend-mode:normal;shape-margin:0;shape-padding:0;text-decoration-color:#000;text-decoration-line:none;text-decoration-style:solid;text-indent:0;text-orientation:mixed;text-transform:none;white-space:normal"/></g><rect x="4.707" y="4.707" width="54.586" height="54.586" rx="12.674" ry="12.674" fill="#1b1b1b" stroke-width=".97475"/><g transform="translate(-8.872 -8.956) scale(.16033)" clip-path="url(#k)"><g><path d="m303.2 32.669-55.469 157.91 218.44-36.75c-32.354-62.135-91.959-107.79-162.97-121.16z" fill="url(#l)" filter="url(#filter3903)"/><path d="m473.01 185.21-164.48 30.917 141.04 170.8c37.633-59.087 47.373-133.54 23.44-201.71z" fill="url(#m)" filter="url(#filter3903)"/><path d="m425.81 408.54-109.02-126.99-77.393 207.55c69.988 3.047 139.33-25.742 186.41-80.557z" fill="url(#n)" filter="url(#filter3903)"/><path d="m208.8 479.33 55.469-157.91-218.44 36.75c32.354 62.135 91.959 107.79 162.97 121.16z" fill="url(#o)" filter="url(#filter3903)"/><path d="m38.988 326.79 164.48-30.916-141.04-170.8c-37.633 59.087-47.373 133.54-23.44 201.71z" fill="url(#p)" filter="url(#filter3903)"/><path d="m86.191 103.46 109.02 126.99 77.393-207.55c-69.988-3.048-139.33 25.741-186.41 80.556z" fill="url(#q)" filter="url(#filter3903)"/><circle cx="256" cy="256" r="32" fill="url(#r)"/></g><g fill="#fff" opacity=".5"><path d="m262.75 177.91c62.523-10.733 125.2-20.603 187.62-31.875-30.655-50.876-82.511-88.825-140.72-101.78l-46.906 133.66z" filter="url(#s)" opacity=".15"/><path d="m327.03 222.84c40.524 48.788 80.415 98.102 121.41 146.5 28.721-51.924 35.594-115.91 17.782-172.72l-139.19 26.219z" filter="url(#t)" opacity=".25"/><path d="m253.69 479.31c59.785-1.051 118.43-27.006 158.75-70.875l-92.22-107.5-66.53 178.38z" filter="url(#u)" opacity=".15"/><path d="m61.438 365.69c30.573 50.936 82.515 89.038 140.91 102.06l46.906-133.66-187.81 31.594z" filter="url(#v)" opacity=".15"/><path d="m63.25 143.22c-28.513 51.852-35.189 115.62-17.469 172.16l139.25-26.219-121.31-146.81z" filter="url(#w)" opacity=".25"/><path d="m257.72 32.719c-59.399 1.051-117.93 27.16-158.19 70.811l92.25 107.53 66.531-178.38z" filter="url(#x)" opacity=".15"/><path d="m254.78 234.03c-17.879-0.186-28.234 25.63-14.562 37.5 10.37 10.67 31.406 7.507 36.219-7.156 5.241-12.604-3.314-29.036-17.282-30.156a21.476 21.476 0 0 0-4.375-0.188z" filter="url(#y)" opacity=".15"/></g></g></svg>

<svg width="64" height="64" enable-background="new 0 0 1024 1024" image-rendering="optimizeSpeed" xml:space="preserve" xmlns:xlink="http://www.w3.org/1999/xlink" xmlns="http://www.w3.org/2000/svg"><defs><linearGradient id="a" x1="7.937" x2="7.937" y1="15.081" y2="1.852" gradientTransform="translate(0 .032) scale(3.7795)" gradientUnits="userSpaceOnUse" spreadMethod="pad"><stop offset="0" stop-color="#f1efeb" style="stop-color:#474747;stop-opacity:1"/><stop offset="1" stop-color="#fdfcfc" style="stop-color:#a5a5a5;stop-opacity:1"/></linearGradient><linearGradient id="i" x1="7.937" x2="7.937" y1="15.081" y2="1.852" gradientTransform="translate(0 .032) scale(3.7795)" gradientUnits="userSpaceOnUse" xlink:href="#a"><stop offset="0" stop-color="#f1efeb" style="stop-color:gray;stop-opacity:1"/><stop offset="1" stop-color="#fdfcfc" style="stop-color:#a5a5a5;stop-opacity:1"/></linearGradient><linearGradient id="h"><stop style="stop-color:#fff;stop-opacity:1" offset="0"/><stop style="stop-color:#b0b0b0;stop-opacity:1" offset="1"/></linearGradient><linearGradient id="b"><stop style="stop-color:#ff7004;stop-opacity:1" offset="0"/><stop style="stop-color:#ba4704;stop-opacity:1" offset="1"/></linearGradient><linearGradient id="g"><stop style="stop-color:#d70016;stop-opacity:1" offset="0"/><stop style="stop-color:#8d0016;stop-opacity:1" offset="1"/></linearGradient><linearGradient id="f"><stop style="stop-color:#d000d0;stop-opacity:1" offset="0"/><stop style="stop-color:#760076;stop-opacity:1" offset="1"/></linearGradient><linearGradient id="e"><stop style="stop-color:#1476e6;stop-opacity:1" offset="0"/><stop style="stop-color:#143e9a;stop-opacity:1" offset="1"/></linearGradient><linearGradient id="d"><stop style="stop-color:#17b414;stop-opacity:1" offset="0"/><stop style="stop-color:#176314;stop-opacity:1" offset="1"/></linearGradient><linearGradient id="c"><stop style="stop-color:#f7f10e;stop-opacity:1" offset="0"/><stop style="stop-color:#c58907;stop-opacity:1" offset="1"/></linearGradient><linearGradient xlink:href="#b" id="l" gradientUnits="userSpaceOnUse" x1="372.859" y1="593.388" x2="318.297" y2="726.388" gradientTransform="translate(1.875 -533.766)"/><linearGradient xlink:href="#c" id="m" gradientUnits="userSpaceOnUse" gradientTransform="rotate(60 717.317 524.507)" x1="277.627" y1="637.059" x2="454.048" y2="683.489"/><linearGradient xlink:href="#d" id="n" gradientUnits="userSpaceOnUse" gradientTransform="rotate(120 409.147 523.424)" x1="253.838" y1="725.269" x2="401.186" y2="612.484"/><linearGradient xlink:href="#e" id="o" gradientUnits="userSpaceOnUse" gradientTransform="rotate(180 255.062 522.883)" x1="326.125" y1="701.766" x2="342.125" y2="581.766"/><linearGradient xlink:href="#f" id="p" gradientUnits="userSpaceOnUse" gradientTransform="rotate(-120 100.977 522.342)" x1="456.976" y1="694.418" x2="273.627" y2="643.987"/><linearGradient xlink:href="#g" id="q" gradientUnits="userSpaceOnUse" gradientTransform="rotate(-60 -207.193 521.26)" x1="432.115" y1="650.053" x2="263.694" y2="710.341"/><linearGradient xlink:href="#h" id="r" x1="256" y1="224" x2="256" y2="288" gradientUnits="userSpaceOnUse"/><linearGradient xlink:href="#i" id="j" gradientUnits="userSpaceOnUse" gradientTransform="translate(55.333 56.611) scale(23.57324)" x1="7.937" y1="15.081" x2="7.937" y2="1.852"/><filter id="w" x="-.078" y="-.067" width="1.156" height="1.134"><feGaussianBlur stdDeviation="4.831"/></filter><filter id="s" x="-.062" y="-.087" width="1.123" height="1.173"><feGaussianBlur stdDeviation="4.819"/></filter><filter id="t" x="-.078" y="-.067" width="1.155" height="1.134"><feGaussianBlur stdDeviation="4.825"/></filter><filter id="x" x="-.076" y="-.068" width="1.153" height="1.136"><feGaussianBlur stdDeviation="5.057"/></filter><filter id="u" x="-.076" y="-.068" width="1.153" height="1.136"><feGaussianBlur stdDeviation="5.057"/></filter><filter id="v" x="-.062" y="-.087" width="1.123" height="1.173"><feGaussianBlur stdDeviation="4.822"/></filter><filter id="y" x="-.096" y="-.096" width="1.192" height="1.192"><feGaussianBlur stdDeviation="1.758"/></filter><clipPath clipPathUnits="userSpaceOnUse" id="k"><rect width="349.279" height="349.279" x="80.282" y="81.36" fill="url(#i)" rx="81.095" ry="81.095" style="display:inline;fill:url(#j);stroke-width:6.23713"/></clipPath></defs><g color="#000" image-rendering="auto" style="display:inline"><path d="M4.37.53C2.254.53.53 2.312.53 4.496v8.468c0 2.184 1.725 3.968 3.84 3.968h8.194c2.114 0 3.84-1.783 3.84-3.968V4.497c0-2.184-1.726-3.968-3.84-3.968zm.256.52h7.681c1.844 0 3.33 1.534 3.33 3.44v7.937c0 1.906-1.485 3.44-3.33 3.44h-7.68c-1.845 0-3.33-1.534-3.33-3.44V4.49c0-1.906 1.485-3.44 3.33-3.44z" enable-background="accumulate" opacity=".01" style="font-variant-ligatures:normal;font-variant-position:normal;font-variant-caps:normal;font-variant-numeric:normal;font-variant-alternates:normal;font-variant-east-asian:normal;font-feature-settings:normal;font-variation-settings:normal;text-indent:0;text-decoration-line:none;text-decoration-style:solid;text-decoration-color:#000;text-transform:none;text-orientation:mixed;white-space:normal;shape-padding:0;shape-margin:0;inline-size:0;isolation:auto;mix-blend-mode:normal" transform="scale(3.7796)"/><path d="M4.359.794C2.392.794.795 2.447.795 4.48v8.5c0 2.035 1.597 3.688 3.564 3.688h8.216c1.967 0 3.564-1.653 3.564-3.688v-8.5c0-2.034-1.597-3.687-3.564-3.687zm.272.256h7.672c1.842 0 3.325 1.534 3.325 3.44v7.937c0 1.906-1.483 3.44-3.325 3.44H4.63c-1.842 0-3.325-1.534-3.325-3.44V4.49c0-1.906 1.483-3.44 3.325-3.44z" enable-background="accumulate" opacity=".01" style="font-variant-ligatures:normal;font-variant-position:normal;font-variant-caps:normal;font-variant-numeric:normal;font-variant-alternates:normal;font-variant-east-asian:normal;font-feature-settings:normal;font-variation-settings:normal;text-indent:0;text-decoration-line:none;text-decoration-style:solid;text-decoration-color:#000;text-transform:none;text-orientation:mixed;white-space:normal;shape-padding:0;shape-margin:0;inline-size:0;isolation:auto;mix-blend-mode:normal" transform="scale(3.7796)"/><path d="M4.31 1.058c-1.866 0-3.375 1.539-3.375 3.44v8.467c0 1.9 1.57 3.439 3.435 3.439h8.2c1.866 0 3.427-1.538 3.427-3.44V4.498c0-1.9-1.51-3.439-3.375-3.439h-.097c1.794.087 3.214 1.582 3.214 3.432v7.937c0 1.906-1.506 3.44-3.377 3.44h-7.79c-1.871 0-3.377-1.534-3.377-3.44V4.49c0-1.85 1.42-3.345 3.214-3.432z" enable-background="accumulate" opacity=".03" style="font-variant-ligatures:normal;font-variant-position:normal;font-variant-caps:normal;font-variant-numeric:normal;font-variant-alternates:normal;font-variant-east-asian:normal;font-feature-settings:normal;font-variation-settings:normal;text-indent:0;text-decoration-line:none;text-decoration-style:solid;text-decoration-color:#000;text-transform:none;text-orientation:mixed;white-space:normal;shape-padding:0;shape-margin:0;inline-size:0;isolation:auto;mix-blend-mode:normal" transform="scale(3.7796)"/><path d="M4 46.969V49c0 6.648 5.896 12 12.544 12h30.961C54.153 61 60 55.648 60 49v-1.992a12.972 12.972 0 0 1-13 12.963H17.002A12.973 12.973 0 0 1 4 46.969Z" enable-background="accumulate" opacity=".03" style="font-variant-ligatures:normal;font-variant-position:normal;font-variant-caps:normal;font-variant-numeric:normal;font-variant-alternates:normal;font-variant-east-asian:normal;font-feature-settings:normal;font-variation-settings:normal;text-indent:0;text-decoration-line:none;text-decoration-style:solid;text-decoration-color:#000;text-transform:none;text-orientation:mixed;white-space:normal;shape-padding:0;shape-margin:0;inline-size:0;isolation:auto;mix-blend-mode:normal"/><path d="M1.058 11.906v.592c0 1.939 1.573 3.5 3.332 3.5h8.16c1.76 0 3.325-1.561 3.325-3.5v-.58c-.006 2.095-1.537 3.78-3.44 3.78H4.498c-1.905 0-3.44-1.692-3.44-3.792z" enable-background="accumulate" opacity=".05" style="font-variant-ligatures:normal;font-variant-position:normal;font-variant-caps:normal;font-variant-numeric:normal;font-variant-alternates:normal;font-variant-east-asian:normal;font-feature-settings:normal;font-variation-settings:normal;text-indent:0;text-decoration-line:none;text-decoration-style:solid;text-decoration-color:#000;text-transform:none;text-orientation:mixed;white-space:normal;shape-padding:0;shape-margin:0;inline-size:0;isolation:auto;mix-blend-mode:normal" transform="scale(3.7796)"/></g><rect width="54.586" height="54.586" x="4.707" y="4.707" fill="url(#i)" rx="12.674" ry="12.674" style="fill:#1b1b1b;fill-opacity:1;stroke-width:.974746"/><g transform="translate(-8.872 -8.956) scale(.16033)" style="display:inline" clip-path="url(#k)"><g style="display:inline"><path style="display:inline;fill:url(#l);fill-opacity:1;fill-rule:nonzero;stroke:none;filter:url(#filter3903)" d="m303.203 32.669-55.469 157.906 218.438-36.75C433.818 91.69 374.213 46.032 303.203 32.669Z"/><path d="M473.012 185.213 308.527 216.13l141.045 170.798c37.633-59.087 47.373-133.536 23.44-201.714z" style="display:inline;fill:url(#m);fill-opacity:1;fill-rule:nonzero;stroke:none;filter:url(#filter3903)"/><path style="display:inline;fill:url(#n);fill-opacity:1;fill-rule:nonzero;stroke:none;filter:url(#filter3903)" d="m425.809 408.545-109.016-126.99L239.4 489.101c69.988 3.047 139.331-25.742 186.409-80.557z"/><path d="m208.797 479.331 55.469-157.906-218.438 36.75c32.354 62.135 91.959 107.793 162.969 121.156z" style="display:inline;fill:url(#o);fill-opacity:1;fill-rule:nonzero;stroke:none;filter:url(#filter3903)"/><path style="display:inline;fill:url(#p);fill-opacity:1;fill-rule:nonzero;stroke:none;filter:url(#filter3903)" d="m38.988 326.787 164.485-30.916L62.428 125.073C24.795 184.16 15.055 258.61 38.988 326.787Z"/><path d="m86.191 103.455 109.016 126.99L272.6 22.899c-69.988-3.048-139.331 25.741-186.41 80.556Z" style="display:inline;fill:url(#q);fill-opacity:1;fill-rule:nonzero;stroke:none;filter:url(#filter3903)"/><circle style="fill:url(#r);fill-opacity:1;stroke:none" cx="256" cy="256" r="32"/></g><g style="display:inline;opacity:.5"><path style="display:inline;opacity:.15;fill:#fff;fill-opacity:1;fill-rule:nonzero;stroke:none;filter:url(#s)" d="M262.75 177.906c62.523-10.733 125.195-20.603 187.625-31.875C419.72 95.155 367.864 57.206 309.656 44.25L262.75 177.906Z"/><path style="display:inline;opacity:.25;fill:#fff;fill-opacity:1;fill-rule:nonzero;stroke:none;filter:url(#t)" d="M327.031 222.844c40.524 48.788 80.415 98.102 121.406 146.5 28.721-51.924 35.594-115.91 17.782-172.719L327.03 222.844z"/><path style="display:inline;opacity:.15;fill:#fff;fill-opacity:1;fill-rule:nonzero;stroke:none;filter:url(#u)" d="M253.688 479.313c59.785-1.051 118.43-27.006 158.75-70.875l-92.22-107.5-66.53 178.375z"/><path style="display:inline;opacity:.15;fill:#fff;fill-opacity:1;fill-rule:nonzero;stroke:none;filter:url(#v)" d="M61.438 365.688c30.573 50.936 82.515 89.038 140.906 102.062l46.906-133.656-187.813 31.594Z"/><path style="display:inline;opacity:.25;fill:#fff;fill-opacity:1;fill-rule:nonzero;stroke:none;filter:url(#w)" d="M63.25 143.219c-28.513 51.852-35.189 115.62-17.469 172.156l139.25-26.219L63.72 142.344z"/><path style="display:inline;opacity:.15;fill:#fff;fill-opacity:1;fill-rule:nonzero;stroke:none;filter:url(#x)" d="M257.719 32.719C198.32 33.77 139.789 59.879 99.53 103.53l92.25 107.531 66.531-178.375z"/><path style="display:inline;opacity:.15;fill:#fff;fill-opacity:1;stroke:none;filter:url(#y)" d="M254.781 234.031c-17.879-.186-28.234 25.63-14.562 37.5 10.37 10.67 31.406 7.507 36.219-7.156 5.241-12.604-3.314-29.036-17.282-30.156a21.476 21.476 0 0 0-4.375-.188z"/></g></g></svg>
